!!!COM: Neumane, Antonio
!!!CDT: 1818-1871
!!!OTL: National Anthem, Ecuador
!!!ENC: Davis, Matthew J.
!!Vocal Line Only
**kern
*clefG2
*k[f#]
*X:
*M4/4
=1-
1r
=2
1r
=3
1r
=4
1r
=5
1r
=6
1r
=7
1r
=8
1r
=9
1r
=10
1r
=11
1r
=12
1r
=13
1r
=14
1r
=15
1r
=16
1r
=17
1r
==18
!Coda Symbol
!Chorus
8.d
16d
=19
4g
8.b
16g
4dd
6ee
6dd
6cc#
=20
2dd
8b
8r
8.ccn
16b
=21
4a
4r
4r
8.b
16a
=22
4g
4r
4r
8.d
16d
=23
4g
8.b
16g
4dd
6ee
6dd
6cc#
=24
4dd
8b
8r
8.g
16g
=25
4f
8.b
16f#
4dd
6cc#
6dd
6cc#
=26
2b
8B
8r
8.d
16d
==|!:27
4a
6g#
6a
6b
4cc
8.cc#
16cc#
=28
2dd
8b
8r
8.d
16d
=29
4a
6g#
6a
6b
4cc
8.cc#
16cc#
=30
[2dd
8dd]
8r
8.d
16d
=31
4g
8.b
16g
4dd
8.g
16g
=32
2gg
8ee
8r
8.cc
16a
=33
4dd
8.g
16b
4cc
8.d
16f#
=34
!First Ending
4g
4r
4r
8.d
16d
==:|!35
!Second Ending
4g
4r
2r
!(Fine)
==36
*k[]
!Verse
2r
4r
8.c
16e
=37
4g
8.g
16g
8.f#
16g
8.a
16g
=38
2cc
8g
8r
8.g
16cc
=39
4b
8.f
16a
4g
8.d
16f
=40
4e
4d
4c
8.c
16e
=41
8.g
16g
8.g
16g
8.f#
16g
8.a
16g
=42
2ee
8cc
8r
8.cc
16cc
=43
4b
8.a
16a
4g
8.f#
16f#
=44
2e
4r
8.g
16g#
==|!:45
4a
8.B
16d
8f
8r
8.a
16a
=46
8.a
16g
8.f#
16g
4cc
8.cc
16cc
=47
8.b
16dd
8.a
16cc
8.g
16b
8.fn
16a
=48
8.a
16b
8.f#
16g
8e
8r
8.c
16e
=49
4g
8.g
16g
8.f#
16g
8.a
16g
=50
4.ee
8dd
4cc
8.b
16a
=51
4g
8.e
16a
8.g
16f
8.e
16d
=52
!First Ending
4c
4r
4r
8.g
16g#
==:|!53
!Second Ending
4c
4r
2r
=54
4r
8.g
16cc
4b
8.a
16b
=55
4cc
4r
2r
=56
4r
8.g
16a
8.g
16f
8.e
16d
=57
4c
4r
4r
!Repeat from measure 18 through measure 35
==
*-
